X:667
T:
N:
S:Från Gotlands fornsal.
R:kadrilj
O:Gotland
M:2/4
L:1/16
K:C
cdec G2G2|cdec G2G2|g2ga g2ga|g2ga gfed|
c2ed c2ed|c2ed G2G2|g2ga gfed|c2c2c2 z2:|
|:d2d^c d2e2|f2fe f2e2|d2d^c d2=c2|B2G2A2B2|
c2ec G2G2|c2ec G2G2|g2ga gfed|c2c2c2 z2:|
|:e3fg2g2|e2ef g2g2|f2f2 d2d2|efed cBcd|
e3fg2g2|abc'd' c'2a2|g2ga gfed|c2c2c2 z2:|
|:d3ef2f2|e3fg2g2|f2fd e2ec|d2d2d2 z2|
e3fg2g2|a2b2c'2a2|f2fa gfed|c2c2c2 z2:|

